X: 51
T: No_56_Song_of_Chief_Dance.krn
N: Derived from No_56_Song_of_Chief_Dance.krn
%%abc-version 2.0
%%abcx-abcm2ps-target-version 5.9.1 (29 Sep 2008)
%%abc-creator hum2abc beta
%%abcx-conversion-date 2019/03/15 08:27:55
%%humdrum-veritas 3149236697
%%humdrum-veritas-data 876298712
%%linebreak <none>
%%barnumbers 0
L: 1/8
M: 3/4
%%staves {1 2}
V: 1 clef=bass
V: 2 clef=bass
K: Bb
[V:1] [K:clef=bass][M:3/4]D4DC | 
[V:2] [K:clef=bass][M:3/4]z6 | 
[V:1] [M:2/4]B,2B,G, | 
[V:2] [M:2/4]z4 | 
[V:1] [M:5/8]B,4z | 
[V:2] [M:5/8](3:2:1z15/ | 
[V:1] [M:2/4]B,/G,/G, B,/B,3/ | 
[V:2] [M:2/4]z4 | 
[V:1] G,4 | 
[V:2] z4 | 
[V:1] D,D,- D, z | 
[V:2] z4 | 
[V:1] G,/G,/G, B,/B,3/ | 
[V:2] z4 | 
[V:1] G,4 | 
[V:2] z4 | 
[V:1] D,D,- D, z | 
[V:2] G,,2G,,2 | 
[V:1] [M:3/4]G,/G,/G,G,2G,3/D,/ | 
[V:2] [M:3/4]G,,2G,,2G,,2 | 
[V:1] G,2G,7/G,/ | 
[V:2] G,,2G,,2G,,2 | 
[V:1] [M:2/4]G,2z2 | 
[V:2] [M:2/4]G,,2G,,2 | 
[V:1] [M:3/4]D/D/DD2DC | 
[V:2] [M:3/4]z6 | 
[V:1] [M:2/4]B,2B,G, | 
[V:2] [M:2/4]z4 | 
[V:1] [M:5/8]B,4z | 
[V:2] [M:5/8](3:2:1z15/ | 
[V:1] [M:3/4]D/D/DD2DC | 
[V:2] [M:3/4]z6 | 
[V:1] [M:2/4]B,2B,G, | 
[V:2] [M:2/4]z4 | 
[V:1] [M:5/8]B,4z | 
[V:2] [M:5/8](3:2:1z15/ | 
[V:1] [M:2/4]G,/G,/G, B,/B,3/ | 
[V:2] [M:2/4]G,,2G,,2 | 
[V:1] G,4 | 
[V:2] G,,2G,,2 | 
[V:1] [M:3/4]D,D,-D,2z2 | 
[V:2] [M:3/4]G,,2G,,2G,,2 | 
[V:1] [M:2/4]G,/G,/G, B,/B,3/ | 
[V:2] [M:2/4]G,,2G,,2 | 
[V:1] G,4 | 
[V:2] G,,2G,,2 | 
[V:1] D,D, D, z | 
[V:2] G,,2G,,2 | 
[V:1] z2G,G, | 
[V:2] G,,2G,,2 | 
[V:1] G,2-G,3/D,/ | 
[V:2] G,,2G,,2 | 
[V:1] G,4 | 
[V:2] G,,2G,,2 | 
[V:1] G,2z2 |]  
[V:2] G,,2z2 |]  



